X:1
T:Manoah, CM
T:Arranged from Giocchino Antonio Rossini, 1851
T:Manoah, CM
T:Public Domain
C:Arranged from Giocchino Antonio Rossini, 1851
Z:Public Domain
%%score ( 1 2 ) ( 3 4 )
L:1/8
M:3/4
K:G
V:1 treble 
V:2 treble 
V:3 bass 
V:4 bass 
V:1
 (GA) | [GB]4 [FA]2 | [EG]4 [DF]2 | [CF]4 [CE]2 | [CE]4 (AB) | [Ec]4 [EB]2 | [EA]4 [EG]2 | %7
 ([D-G]6 [DF]4) [CD]2 | (B,2 D2) [CA]2 | [Ec]4 [DB]2 | [Ee]4 [EB]2 | (d2 c2) [EA]2 | [DG]4 D2 | %13
 [GB]4 [DA]2 | [DG]4 |] %15
V:2
 G2 | x6 | x6 | x6 | x4 E2 | x6 | x6 | x12 | B4 x2 | x6 | x6 | E4 x2 | x4 D2 | x6 | x4 |] %15
V:3
 (B,C) | [G,D]4 [G,C]2 | [E,B,]4 [B,,G,]2 | [C,G,]4 [C,G,]2 | [C,G,]4 ([C,E,][B,,^G,]) | %5
 [A,,A,]4 [B,,^G,]2 | [C,A,]4 [^C,^A,]2 | ([D,-B,]6 [D,A,]4) [D,F,]2 | [G,,G,]4 [G,,G,]2 | %9
 [G,,G,]4 [G,,G,]2 | [C,G,]4 [E,^G,]2 | [A,,A,]4 [C,A,]2 | [D,B,]4 [D,B,]2 | [D,D]4 [D,C]2 | %14
 [G,,G,B,]4 |] %15
V:4
 G,2 | x6 | x6 | x6 | x6 | x6 | x6 | x12 | x6 | x6 | x6 | x6 | x6 | x6 | x4 |] %15

